material/.icons/material/qrcode-edit.svg

<svg xmlns="http://www.w3.org/2000/svg" viewBox="0 0 24 24"><path d="M5 5h2v2H5V5M1 1h10v10H1V1m2 2v6h6V3H3m2 14h2v2H5v-2m-4-4h10v10H1V13m2 2v6h6v-6H3m10-2h4v2h2v-2h4v2h-4v2h4v6h-4v-2h-4v2h-2v-2h2v-2h-2v-6m8 8v-2h-2v2h2m-2-4h-2v-2h-2v4h4v-2m3.7-13.65l-1 1-2.05-2 1-1c.2-.21.54-.22.77 0l1.28 1.23c.21.2.22.54 0 .77M13 8.94l6.07-6.06 2.05 2.05L15.06 11H13V8.94z"/></svg>

<?xml version="1.0" encoding="UTF-8"?><!DOCTYPE svg PUBLIC "-//W3C//DTD SVG 1.1//EN" "http://www.w3.org/Graphics/SVG/1.1/DTD/svg11.dtd"><svg xmlns="http://www.w3.org/2000/svg" xmlns:xlink="http://www.w3.org/1999/xlink" version="1.1" id="mdi-qrcode-edit" width="24" height="24" viewBox="0 0 24 24"><path d="M5,5H7V7H5V5M1,1H11V11H1V1M3,3V9H9V3H3M5,17H7V19H5V17M1,13H11V23H1V13M3,15V21H9V15H3M13,13H17V15H19V13H23V15H19V17H23V23H19V21H15V23H13V21H15V19H13V13M21,21V19H19V21H21M19,17H17V15H15V19H19V17M22.7,3.35L21.7,4.35L19.65,2.35L20.65,1.35C20.85,1.14 21.19,1.13 21.42,1.35L22.7,2.58C22.91,2.78 22.92,3.12 22.7,3.35M13,8.94L19.07,2.88L21.12,4.93L15.06,11H13V8.94Z" /></svg>
